assets/features/channel/southeast-asia1/momo.svg

<svg width="80" height="80" viewBox="0 0 80 80" fill="none" xmlns="http://www.w3.org/2000/svg">
<rect width="80" height="80" rx="8" fill="#A50064"/>
<path d="M51.4657 22.3999C46.7901 22.3999 42.9316 26.2 42.9316 30.9684C42.9316 35.6628 46.7164 39.5369 51.4657 39.5369C56.1414 39.5369 59.9999 35.7375 59.9999 30.9684C59.9999 26.274 56.2143 22.3999 51.4657 22.3999ZM51.4657 34.619C50.5019 34.6174 49.578 34.2323 48.8964 33.548C48.2149 32.8637 47.8313 31.9361 47.8297 30.9684C47.8313 30.0007 48.2149 29.073 48.8964 28.3888C49.578 27.7045 50.5019 27.3193 51.4657 27.3177C52.4296 27.3193 53.3535 27.7045 54.035 28.3888C54.7166 29.073 55.1002 30.0007 55.1017 30.9684C55.1004 31.9362 54.7169 32.8641 54.0353 33.5485C53.3537 34.2329 52.4297 34.6174 51.4657 34.619ZM34.1005 22.3999C32.7123 22.3969 31.3597 22.8408 30.2413 23.6664C29.2024 22.8467 27.8659 22.3999 26.382 22.3999C22.8204 22.3999 20 25.3056 20 28.8076V39.5369H24.8981V28.8076C24.8981 27.988 25.5656 27.3925 26.3083 27.3925C27.1239 27.3925 27.7178 28.0627 27.7178 28.8076V39.5369H32.6159V28.8076C32.6159 27.988 33.2842 27.3925 34.0261 27.3925C34.8425 27.3925 35.4363 28.0627 35.4363 28.8076V39.5369H40.3337V28.8831C40.4825 25.3056 37.6621 22.3999 34.1005 22.3999ZM51.4657 43.263C46.7901 43.263 42.9316 47.063 42.9316 51.8314C42.9316 56.5259 46.7164 60.3999 51.4657 60.3999C56.1414 60.3999 59.9999 56.5998 59.9999 51.8314C60.006 50.7046 59.7894 49.5877 59.3627 48.5454C58.936 47.5031 58.3077 46.5561 57.5141 45.7593C56.7205 44.9624 55.7774 44.3315 54.7393 43.903C53.7012 43.4745 52.5881 43.257 51.4657 43.263ZM51.4657 55.4081C50.5018 55.4065 49.5777 55.0213 48.8962 54.3368C48.2146 53.6524 47.8311 52.7246 47.8297 51.7567C47.8313 50.789 48.2149 49.8614 48.8964 49.1771C49.578 48.4928 50.5019 48.1077 51.4657 48.1061C52.4296 48.1077 53.3535 48.4928 54.035 49.1771C54.7166 49.8614 55.1002 50.789 55.1017 51.7567C55.1017 53.8428 53.4698 55.4081 51.4657 55.4081ZM34.1005 43.263C32.7123 43.26 31.3597 43.7038 30.2413 44.5294C29.2024 43.7098 27.8659 43.263 26.382 43.263C22.8204 43.263 20 46.1687 20 49.6706V60.3999H24.8981V49.5959C24.8981 48.7763 25.5656 48.18 26.3083 48.18C27.1239 48.18 27.7178 48.851 27.7178 49.5959V60.3259H32.6159V49.5959C32.6159 48.7763 33.2842 48.18 34.0261 48.18C34.8425 48.18 35.4363 48.851 35.4363 49.5959V60.3259H40.3337V49.6706C40.4825 46.094 37.6621 43.263 34.1005 43.263Z" fill="white"/>
</svg>

<svg xmlns="http://www.w3.org/2000/svg" width="80" height="80" fill="none" viewBox="0 0 80 80"><rect width="80" height="80" fill="#a50064" rx="8"/><path fill="#fff" d="M51.466 22.4c-4.676 0-8.534 3.8-8.534 8.568 0 4.695 3.784 8.569 8.534 8.569 4.675 0 8.534-3.8 8.534-8.569 0-4.694-3.786-8.568-8.534-8.568m0 12.219a3.64 3.64 0 0 1-2.57-1.071 3.66 3.66 0 0 1-1.066-2.58 3.66 3.66 0 0 1 1.066-2.58 3.64 3.64 0 0 1 2.57-1.07 3.64 3.64 0 0 1 2.569 1.07 3.66 3.66 0 0 1 1.067 2.58 3.66 3.66 0 0 1-1.067 2.58 3.63 3.63 0 0 1-2.57 1.071M34.1 22.399a6.47 6.47 0 0 0-3.859 1.267c-1.039-.82-2.375-1.266-3.859-1.266C22.82 22.4 20 25.306 20 28.808v10.729h4.898v-10.73c0-.819.668-1.415 1.41-1.415.816 0 1.41.67 1.41 1.416v10.729h4.898v-10.73c0-.819.668-1.415 1.41-1.415.816 0 1.41.67 1.41 1.416v10.729h4.898V28.883c.148-3.577-2.672-6.483-6.234-6.483m17.366 20.864c-4.676 0-8.534 3.8-8.534 8.568 0 4.695 3.784 8.569 8.534 8.569C56.14 60.4 60 56.6 60 51.83a8.55 8.55 0 0 0-2.486-6.072 8.5 8.5 0 0 0-6.048-2.496m0 12.145a3.63 3.63 0 0 1-2.57-1.071 3.66 3.66 0 0 1-1.066-2.58 3.66 3.66 0 0 1 1.066-2.58 3.64 3.64 0 0 1 2.57-1.07 3.63 3.63 0 0 1 2.569 1.07 3.66 3.66 0 0 1 1.067 2.58c0 2.086-1.632 3.651-3.636 3.651M34.1 43.263a6.47 6.47 0 0 0-3.859 1.266c-1.039-.82-2.375-1.266-3.859-1.266-3.562 0-6.382 2.906-6.382 6.408V60.4h4.898V49.596c0-.82.668-1.416 1.41-1.416.816 0 1.41.671 1.41 1.416v10.73h4.898v-10.73c0-.82.668-1.416 1.41-1.416.816 0 1.41.671 1.41 1.416v10.73h4.898V49.67c.148-3.577-2.672-6.408-6.234-6.408"/></svg>
